!!!OTL: Die schöne Anna und der böse F&auml;hnrich (6a), S. 39f
!!!id: T0107
**kern
*clefG2
*k[b-]
*F:
{8f
8a
=1
8cc
8cc
8cc
8cc
=2
8b-
8a
8g
8f
=3
4g
8.g
16g
=4
4g}
=5
{8f
8a
=6
8cc
8cc
8cc
8cc
=7
8b-
8a
8g
8f
=8
4g
8.g
16g
=9
4g}
=10
{4ff
=11
8cc
8b-
8a
8g
=12
4f
8f
8f
=13
8dd
8dd
8dd
8dd
=14
8cc
8ff
8ee}
=15
{8dd
=16
8cc
8b-
8a
8g
=17
4f
8f
8f
=18
8cc
8cc
8cc
8b-
=19
4a}
=20
{4ff
=21
8cc
8b-
8a
8g
=22
4f
8f
8f
=23
8dd
8dd
8dd
8dd
=24
8cc
8ff
8ee}
=25
{8dd
=26
8cc
8b-
8a
8g
=27
4f
8f
8f
=28
8cc
8cc
8cc
8b-
=29
4a}
==
*-
!!!minrhy: 16
!!!meters: 2/4 ]  ZZ[6
!!!cut: Die schöne Anna und der böse F&auml;hnrich (6a), S. 39f
!!!reg: Luxemburg
!!!trd: Singendes Volk, Esch-Alzette 1937 posth.
!!!rhy1: X_X_  X_X_X_X_  X_X_X_X_  X__X_.X  X__
!!!rhy2: X_X_  X_X_X_X_  X_X_X_X_  X__X_.X  X__
!!!key: T0107  16  F 2/4 ]  ZZ[6
!!!mod: HEPTATONIK IONISCH]  AMBITUS[8
!!!kad: 227373
!!!akz: 5422_5422_5165_5153_5165_5153_
!!!fot: 'a__a__b__c__b__c__
!!!for: 'a__a__b__bw_b__bw_
!!!fok: '^a_^a_Vd_\__Vd_\__
!! PHRAS[AUFTAKTIG]
!!!fkt: "erz&auml;hlendes Lied"
!!!bem1: BLASCHEID und Umgebung;
!!!bem2: dieses Lied gesungen von hhh Nikolaus Perl 1902
!! THILL, Mathias:
!! PR[25] 2K[0] 2G[8] 3K[13] 3G[8] 4A[0] 4Ü[0] 5A[0] 6K[0] 6G[0]
!! 7K[0] 7G[0] 8A[0] MEHR[0] SI[29] ABS[24] SR[8] SP[21]
!! ST[8] 2k[4] 2g[29] 3k[8] 3g[0] 4d[0] 4ü[0] 5d[4] 6k[0] 6g[0]
!! 7k[0] 7g[0] 8d[0] mehr[0] si[46] dm[-17] sr[33] sp[13]
!! 1F[77] 2F[23] 3F[0] 4F[0] LF[0] 2P[0] 3P[0] 4P[0] TRI[0] DF[2] AB[26]
!! TF[0] U3K[0] U3[0] U4[0] U4Ü[0] U5[0] U6K[0] U6[0] U7K[0] U7[0]
!! N1[12] N2K[0] N2[12] N3K[0] N3[20] N4[16] N4Ü[0] N5[32] N6K[0] N6[8]
!!!n7k: 0] N7[0] O1[0] O2K[0] O2[0] O3K[0] O3[0] HÖ[0
!!!RNB: symbol: &auml;      = a umlaut  (UTF-8: Å„)
